packages/tokens/icons/puzzle/size16Px.svg

<svg viewBox="0 0 16 16" fill="none" xmlns="http://www.w3.org/2000/svg" width="1em" height="1em"><mask id="path-1-inside-1_979_6406" fill="currentColor"><path fill-rule="evenodd" clip-rule="evenodd" d="M7.5 3.3618C7.5 3.16198 7.33802 3 7.1382 3L5 3C4.44772 3 4 3.44771 4 4L4 6.17863C4 6.5052 3.6686 6.68996 3.44759 6.44953C3.18926 6.16852 2.85939 6 2.5 6C1.67157 6 1 6.89543 1 8C1 9.10457 1.67157 10 2.5 10C2.85939 10 3.18926 9.83148 3.44759 9.55047C3.6686 9.31005 4 9.4948 4 9.82137L4 13C4 13.5523 4.44772 14 5 14L7 14C7.27614 14 7.5 13.7761 7.5 13.5V12.6382C7.5 12.4294 7.375 12.2492 7.25 12.0691C7.125 11.889 7 11.7088 7 11.5C7 11.2239 7.44772 11 8 11C8.55228 11 9 11.2239 9 11.5C9 11.7088 8.875 11.889 8.75 12.0691C8.625 12.2492 8.5 12.4294 8.5 12.6382V13.5C8.5 13.7761 8.72386 14 9 14H11C11.5523 14 12 13.5523 12 13V9.82137C12 9.4948 12.3314 9.31005 12.5524 9.55047C12.8107 9.83148 13.1406 10 13.5 10C14.3284 10 15 9.10457 15 8C15 6.89543 14.3284 6 13.5 6C13.1406 6 12.8107 6.16852 12.5524 6.44953C12.3314 6.68995 12 6.5052 12 6.17863V4C12 3.44772 11.5523 3 11 3L8.8618 3C8.66199 3 8.5 3.16199 8.5 3.3618C8.5 3.57062 8.625 3.75076 8.75 3.9309C8.875 4.11104 9 4.29118 9 4.5C9 4.77614 8.55228 5 8 5C7.44772 5 7 4.77614 7 4.5C7 4.29118 7.125 4.11104 7.25 3.9309C7.375 3.75076 7.5 3.57062 7.5 3.3618Z"/></mask><path d="M3.44759 6.44953L4.18378 5.77277L4.18378 5.77277L3.44759 6.44953ZM3.44759 9.55047L2.71139 8.8737L2.71139 8.8737L3.44759 9.55047ZM12.5524 9.55047L11.8162 10.2272L11.8162 10.2272L12.5524 9.55047ZM12.5524 6.44953L13.2886 7.1263L12.5524 6.44953ZM5 4H7.1382V2H5V4ZM5 4V4V2C3.89543 2 3 2.89543 3 4L5 4ZM5 6.17863V4L3 4L3 6.17863H5ZM2.71139 7.1263C3.12056 7.5714 3.74583 7.68315 4.26491 7.41553C4.7375 7.17189 5 6.68196 5 6.17863H3C3 6.00187 3.0968 5.76761 3.34843 5.63788C3.47566 5.57228 3.63703 5.53972 3.80735 5.57093C3.9808 5.60271 4.10775 5.69006 4.18378 5.77277L2.71139 7.1263ZM2.5 7C2.52811 7 2.60455 7.01008 2.71139 7.1263L4.18378 5.77277C3.77397 5.32697 3.19067 5 2.5 5L2.5 7ZM2 8C2 7.64316 2.10973 7.3586 2.23934 7.18579C2.36872 7.01328 2.47111 7 2.5 7L2.5 5C1.70046 5 1.05286 5.43443 0.63934 5.98579C0.226055 6.53683 0 7.25227 0 8H2ZM2.5 9C2.47111 9 2.36872 8.98672 2.23934 8.81421C2.10973 8.6414 2 8.35684 2 8H0C0 8.74773 0.226055 9.46317 0.63934 10.0142C1.05286 10.5656 1.70046 11 2.5 11L2.5 9ZM2.71139 8.8737C2.60455 8.98992 2.52811 9 2.5 9L2.5 11C3.19067 11 3.77397 10.673 4.18378 10.2272L2.71139 8.8737ZM5 9.82137C5 9.31804 4.7375 8.82812 4.26492 8.58447C3.74583 8.31685 3.12056 8.4286 2.71139 8.8737L4.18378 10.2272C4.10775 10.3099 3.9808 10.3973 3.80735 10.4291C3.63703 10.4603 3.47566 10.4277 3.34843 10.3621C3.0968 10.2324 3 9.99813 3 9.82137H5ZM5 13L5 9.82137H3L3 13H5ZM5 13H3C3 14.1046 3.89543 15 5 15V13ZM7 13L5 13V15L7 15V13ZM8.5 13.5V12.6382L6.5 12.6382V13.5L8.5 13.5ZM8.5 12.6382C8.5 12.0595 8.15246 11.6156 8.07158 11.499L6.42842 12.6392C6.44446 12.6623 6.45765 12.6813 6.47023 12.6998C6.48256 12.7179 6.49259 12.7329 6.5011 12.7462C6.51866 12.7734 6.5257 12.7866 6.52763 12.7905C6.53135 12.7979 6.5 12.739 6.5 12.6382L8.5 12.6382ZM8.07158 11.499C8.05554 11.4759 8.04235 11.4569 8.02977 11.4384C8.01744 11.4203 8.00741 11.4053 7.9989 11.392C7.98134 11.3648 7.9743 11.3516 7.97237 11.3477C7.96865 11.3403 8 11.3992 8 11.5L6 11.5C6 12.0787 6.34754 12.5226 6.42842 12.6392L8.07158 11.499ZM8 11.5C8 11.7178 7.90814 11.8731 7.84206 11.9512C7.81002 11.9891 7.78185 12.0123 7.76568 12.0243C7.7572 12.0305 7.75064 12.0347 7.74653 12.0372C7.74239 12.0397 7.74015 12.0409 7.74011 12.0409C7.74004 12.0409 7.74174 12.0401 7.74535 12.0386C7.74894 12.0371 7.75411 12.0351 7.76092 12.0328C7.77472 12.0281 7.79364 12.0227 7.81766 12.0177C7.86636 12.0074 7.92842 12 8 12L8 10C7.60227 10 7.19276 10.0785 6.84568 10.252C6.55841 10.3957 6 10.7791 6 11.5L8 11.5ZM8 12C8.07158 12 8.13364 12.0074 8.18234 12.0177C8.20636 12.0227 8.22528 12.0281 8.23908 12.0328C8.24589 12.0351 8.25106 12.0371 8.25465 12.0386C8.25826 12.0401 8.25996 12.0409 8.25989 12.0409C8.25985 12.0409 8.25761 12.0397 8.25347 12.0372C8.24936 12.0347 8.2428 12.0305 8.23432 12.0243C8.21815 12.0123 8.18998 11.9891 8.15794 11.9512C8.09186 11.8731 8 11.7178 8 11.5H10C10 10.7791 9.44159 10.3957 9.15432 10.252C8.80724 10.0785 8.39773 10 8 10L8 12ZM8 11.5C8 11.3992 8.03135 11.3403 8.02763 11.3477C8.0257 11.3516 8.01866 11.3648 8.0011 11.392C7.99259 11.4053 7.98256 11.4203 7.97023 11.4384C7.95765 11.4569 7.94446 11.4759 7.92842 11.499L9.57158 12.6392C9.65246 12.5226 10 12.0787 10 11.5H8ZM7.92842 11.499C7.84754 11.6156 7.5 12.0595 7.5 12.6382H9.5C9.5 12.739 9.46865 12.7979 9.47237 12.7905C9.4743 12.7866 9.48134 12.7734 9.4989 12.7462C9.50741 12.7329 9.51744 12.7179 9.52977 12.6998C9.54235 12.6813 9.55554 12.6623 9.57158 12.6392L7.92842 11.499ZM7.5 12.6382V13.5H9.5V12.6382H7.5ZM11 13H9V15H11V13ZM11 13V15C12.1046 15 13 14.1046 13 13H11ZM11 9.82137V13H13V9.82137H11ZM13.2886 8.8737C12.8794 8.4286 12.2542 8.31685 11.7351 8.58447C11.2625 8.82811 11 9.31804 11 9.82137H13C13 9.99813 12.9032 10.2324 12.6516 10.3621C12.5243 10.4277 12.363 10.4603 12.1927 10.4291C12.0192 10.3973 11.8922 10.3099 11.8162 10.2272L13.2886 8.8737ZM13.5 9C13.4719 9 13.3955 8.98992 13.2886 8.8737L11.8162 10.2272C12.226 10.673 12.8093 11 13.5 11V9ZM14 8C14 8.35684 13.8903 8.6414 13.7607 8.81421C13.6313 8.98672 13.5289 9 13.5 9V11C14.2995 11 14.9471 10.5656 15.3607 10.0142C15.7739 9.46317 16 8.74773 16 8L14 8ZM13.5 7C13.5289 7 13.6313 7.01328 13.7607 7.18579C13.8903 7.3586 14 7.64316 14 8L16 8C16 7.25227 15.7739 6.53683 15.3607 5.98579C14.9471 5.43443 14.2995 5 13.5 5V7ZM13.2886 7.1263C13.3955 7.01008 13.4719 7 13.5 7V5C12.8093 5 12.226 5.32697 11.8162 5.77277L13.2886 7.1263ZM11 6.17863C11 6.68196 11.2625 7.17189 11.7351 7.41553C12.2542 7.68315 12.8794 7.5714 13.2886 7.1263L11.8162 5.77277C11.8922 5.69006 12.0192 5.60271 12.1927 5.57093C12.363 5.53972 12.5243 5.57228 12.6516 5.63788C12.9032 5.76761 13 6.00187 13 6.17863H11ZM11 4V6.17863H13V4H11ZM11 4H13C13 2.89543 12.1046 2 11 2V4ZM8.8618 4H11V2L8.8618 2V4ZM9.57158 3.36081C9.55554 3.3377 9.54235 3.31868 9.52977 3.30021C9.51744 3.28211 9.50741 3.26705 9.4989 3.25384C9.48134 3.22657 9.4743 3.21338 9.47237 3.20953C9.46865 3.20209 9.5 3.26101 9.5 3.3618L7.5 3.3618C7.5 3.94045 7.84754 4.38444 7.92842 4.501L9.57158 3.36081ZM10 4.5C10 3.92135 9.65246 3.47737 9.57158 3.36081L7.92842 4.501C7.94446 4.52411 7.95765 4.54313 7.97023 4.56159C7.98256 4.57969 7.99259 4.59475 8.0011 4.60797C8.01866 4.63523 8.0257 4.64842 8.02763 4.65227C8.03135 4.65971 8 4.6008 8 4.5L10 4.5ZM8 6C8.39773 6 8.80724 5.92152 9.15432 5.74798C9.44159 5.60435 10 5.2209 10 4.5L8 4.5C8 4.28218 8.09186 4.1269 8.15794 4.04878C8.18998 4.01091 8.21815 3.98772 8.23432 3.97575C8.2428 3.96947 8.24936 3.96527 8.25347 3.96277C8.25761 3.96027 8.25985 3.95915 8.25989 3.95913C8.25996 3.9591 8.25826 3.95994 8.25465 3.96143C8.25106 3.96291 8.24589 3.9649 8.23908 3.9672C8.22528 3.97186 8.20636 3.97727 8.18234 3.98235C8.13364 3.99264 8.07158 4 8 4L8 6ZM6 4.5C6 5.2209 6.55841 5.60435 6.84568 5.74798C7.19276 5.92152 7.60227 6 8 6L8 4C7.92842 4 7.86636 3.99264 7.81766 3.98235C7.79364 3.97727 7.77472 3.97186 7.76092 3.9672C7.75411 3.9649 7.74894 3.96291 7.74535 3.96143C7.74174 3.95994 7.74004 3.9591 7.74011 3.95913C7.74015 3.95915 7.74239 3.96027 7.74653 3.96277C7.75064 3.96527 7.7572 3.96947 7.76568 3.97575C7.78185 3.98772 7.81002 4.01091 7.84206 4.04878C7.90814 4.1269 8 4.28218 8 4.5H6ZM6.42842 3.36081C6.34754 3.47737 6 3.92135 6 4.5H8C8 4.6008 7.96865 4.65971 7.97237 4.65227C7.9743 4.64842 7.98134 4.63523 7.9989 4.60797C8.00741 4.59475 8.01744 4.57969 8.02977 4.56159C8.04235 4.54312 8.05554 4.52411 8.07158 4.501L6.42842 3.36081ZM6.5 3.3618C6.5 3.26101 6.53135 3.20209 6.52763 3.20953C6.5257 3.21338 6.51866 3.22657 6.5011 3.25384C6.49259 3.26705 6.48256 3.28211 6.47023 3.30021C6.45765 3.31868 6.44446 3.3377 6.42842 3.36081L8.07158 4.501C8.15246 4.38443 8.5 3.94045 8.5 3.3618L6.5 3.3618ZM7.5 13.5C7.5 14.3284 8.17157 15 9 15V13C9.27614 13 9.5 13.2239 9.5 13.5H7.5ZM8.8618 2C8.1097 2 7.5 2.6097 7.5 3.3618L9.5 3.3618C9.5 3.71427 9.21427 4 8.8618 4V2ZM7 15C7.82843 15 8.5 14.3284 8.5 13.5L6.5 13.5C6.5 13.2239 6.72386 13 7 13V15ZM8.5 3.3618C8.5 2.6097 7.8903 2 7.1382 2V4C6.78573 4 6.5 3.71427 6.5 3.3618L8.5 3.3618Z" fill="currentColor" mask="url(#path-1-inside-1_979_6406)"/></svg>

<svg xmlns="http://www.w3.org/2000/svg" fill="none" viewBox="0 0 16 16" width="1em" height="1em"><mask id="iconsPuzzleSize16Px__a" fill="#fff"><path fill-rule="evenodd" d="M7.5 3.362c0-.2-.162-.362-.362-.362H5a1 1 0 0 0-1 1v2.179c0 .326-.331.511-.552.27C3.189 6.17 2.859 6 2.5 6 1.672 6 1 6.895 1 8s.672 2 1.5 2c.36 0 .69-.169.948-.45.22-.24.552-.055.552.271V13a1 1 0 0 0 1 1h2a.5.5 0 0 0 .5-.5v-.862c0-.209-.125-.389-.25-.569-.125-.18-.25-.36-.25-.569 0-.276.448-.5 1-.5s1 .224 1 .5c0 .209-.125.389-.25.57-.125.18-.25.36-.25.568v.862a.5.5 0 0 0 .5.5h2a1 1 0 0 0 1-1V9.821c0-.326.331-.51.552-.27.259.28.589.449.948.449.828 0 1.5-.895 1.5-2s-.672-2-1.5-2c-.36 0-.69.169-.948.45-.22.24-.552.055-.552-.271V4a1 1 0 0 0-1-1H8.862c-.2 0-.362.162-.362.362 0 .209.125.389.25.569.125.18.25.36.25.569 0 .276-.448.5-1 .5s-1-.224-1-.5c0-.209.125-.389.25-.57.125-.18.25-.36.25-.568Z" clip-rule="evenodd"/></mask><path fill="currentColor" d="m3.448 6.45.736-.677-.736.677Zm0 3.1-.737-.676.737.676Zm9.104 0-.736.677.736-.677Zm0-3.1.737.676-.737-.676ZM5 4h2.138V2H5v2Zm0 0V2a2 2 0 0 0-2 2h2Zm0 2.179V4H3v2.179h2Zm-2.289.947a1.29 1.29 0 0 0 1.554.29C4.738 7.172 5 6.682 5 6.179H3a.62.62 0 0 1 .348-.541.72.72 0 0 1 .46-.067c.173.032.3.12.376.202L2.71 7.126ZM2.5 7c.028 0 .105.01.211.126l1.473-1.353C3.774 5.327 3.19 5 2.5 5v2ZM2 8c0-.357.11-.641.24-.814.128-.173.23-.186.26-.186V5c-.8 0-1.447.434-1.86.986C.225 6.536 0 7.252 0 8h2Zm.5 1c-.029 0-.131-.013-.26-.186C2.11 8.641 2 8.357 2 8H0c0 .748.226 1.463.64 2.014.413.552 1.06.986 1.86.986V9Zm.211-.126C2.605 8.99 2.528 9 2.5 9v2c.69 0 1.274-.327 1.684-.773L2.71 8.874ZM5 9.82c0-.503-.263-.993-.735-1.237a1.29 1.29 0 0 0-1.554.29l1.473 1.353a.679.679 0 0 1-.377.202.72.72 0 0 1-.459-.067.62.62 0 0 1-.348-.54h2ZM5 13V9.821H3V13h2Zm0 0H3a2 2 0 0 0 2 2v-2Zm2 0H5v2h2v-2Zm1.5.5v-.862h-2v.862h2Zm0-.862c0-.579-.348-1.022-.428-1.139l-1.644 1.14a7.64 7.64 0 0 1 .073.107c.018.027.025.04.027.044.003.008-.028-.051-.028-.152h2ZM8.072 11.5a7.64 7.64 0 0 1-.073-.107.516.516 0 0 1-.027-.044c-.003-.008.028.051.028.152H6c0 .579.348 1.023.428 1.14L8.072 11.5ZM8 11.5a.703.703 0 0 1-.158.451.462.462 0 0 1-.097.088A.893.893 0 0 1 8 12v-2c-.398 0-.807.079-1.154.252-.288.144-.846.527-.846 1.248h2Zm0 .5a.893.893 0 0 1 .24.033.24.24 0 0 1 .013.004.462.462 0 0 1-.096-.086A.703.703 0 0 1 8 11.5h2c0-.72-.558-1.104-.846-1.248A2.614 2.614 0 0 0 8 10v2Zm0-.5c0-.1.031-.16.028-.152a1.971 1.971 0 0 1-.1.151l1.644 1.14c.08-.116.428-.56.428-1.139H8Zm-.072-.001c-.08.117-.428.56-.428 1.14h2c0 .1-.031.159-.028.152a1.971 1.971 0 0 1 .1-.151l-1.644-1.141Zm-.428 1.14v.861h2v-.862h-2ZM11 13H9v2h2v-2Zm0 0v2a2 2 0 0 0 2-2h-2Zm0-3.179V13h2V9.821h-2Zm2.289-.947a1.29 1.29 0 0 0-1.554-.29A1.381 1.381 0 0 0 11 9.821h2a.62.62 0 0 1-.348.541.72.72 0 0 1-.46.067.679.679 0 0 1-.376-.202l1.473-1.353ZM13.5 9c-.028 0-.104-.01-.211-.126l-1.473 1.353c.41.446.993.773 1.684.773V9Zm.5-1c0 .357-.11.641-.24.814-.129.173-.231.186-.26.186v2c.8 0 1.447-.434 1.86-.986.414-.55.64-1.266.64-2.014h-2Zm-.5-1c.029 0 .131.013.26.186.13.173.24.457.24.814h2c0-.748-.226-1.463-.64-2.014C14.948 5.434 14.3 5 13.5 5v2Zm-.211.126c.107-.116.183-.126.211-.126V5c-.69 0-1.274.327-1.684.773l1.473 1.353ZM11 6.18c0 .503.262.993.735 1.237a1.29 1.29 0 0 0 1.554-.29l-1.473-1.353a.678.678 0 0 1 .377-.202.72.72 0 0 1 .459.067.62.62 0 0 1 .348.54h-2ZM11 4v2.179h2V4h-2Zm0 0h2a2 2 0 0 0-2-2v2ZM8.862 4H11V2H8.862v2Zm.71-.64a8.456 8.456 0 0 1-.073-.106.537.537 0 0 1-.027-.044c-.003-.008.028.051.028.152h-2c0 .578.348 1.022.428 1.139l1.644-1.14ZM10 4.5c0-.579-.348-1.023-.428-1.14L7.928 4.502a8.704 8.704 0 0 1 .073.107c.018.027.025.04.027.044C8.03 4.66 8 4.601 8 4.5h2ZM8 6c.398 0 .807-.078 1.154-.252.288-.144.846-.527.846-1.248H8c0-.218.092-.373.158-.451a.46.46 0 0 1 .095-.086l.007-.004-.005.002A.894.894 0 0 1 8 4v2ZM6 4.5c0 .72.558 1.104.846 1.248C7.193 5.922 7.602 6 8 6V4a.894.894 0 0 1-.24-.033.257.257 0 0 1-.02-.008l.007.004.019.013a.46.46 0 0 1 .076.073A.703.703 0 0 1 8 4.5H6Zm.428-1.14C6.348 3.478 6 3.922 6 4.5h2c0 .1-.031.16-.028.152a2.158 2.158 0 0 1 .1-.151l-1.644-1.14Zm.072.002c0-.101.031-.16.028-.152a2.186 2.186 0 0 1-.1.151L8.072 4.5c.08-.117.428-.56.428-1.14h-2Zm1 10.138A1.5 1.5 0 0 0 9 15v-2a.5.5 0 0 1 .5.5h-2ZM8.862 2C8.11 2 7.5 2.61 7.5 3.362h2A.638.638 0 0 1 8.862 4V2ZM7 15a1.5 1.5 0 0 0 1.5-1.5h-2A.5.5 0 0 1 7 13v2ZM8.5 3.362C8.5 2.61 7.89 2 7.138 2v2a.638.638 0 0 1-.638-.638h2Z" mask="url(#iconsPuzzleSize16Px__a)"/></svg>
